svg/terra/tesf/tesf.svg

<?xml version="1.0" encoding="UTF-8" standalone="no"?>
<!-- Created with Inkscape (http://www.inkscape.org/) -->

<svg
   width="16"
   height="16"
   viewBox="0 0 16 16"
   version="1.1"
   id="svg1"
   sodipodi:docname="tesf.svg"
   inkscape:version="1.4.2 (ebf0e940d0, 2025-05-08)"
   xmlns:inkscape="http://www.inkscape.org/namespaces/inkscape"
   xmlns:sodipodi="http://sodipodi.sourceforge.net/DTD/sodipodi-0.dtd"
   xmlns="http://www.w3.org/2000/svg"
   xmlns:svg="http://www.w3.org/2000/svg">
  <sodipodi:namedview
     id="namedview1"
     pagecolor="#505050"
     bordercolor="#FFF7F7"
     borderopacity="1"
     inkscape:showpageshadow="0"
     inkscape:pageopacity="0"
     inkscape:pagecheckerboard="1"
     inkscape:deskcolor="#505050"
     inkscape:document-units="px"
     showguides="false"
     showgrid="true"
     inkscape:zoom="11.313709"
     inkscape:cx="24.969708"
     inkscape:cy="17.500893"
     inkscape:window-width="1908"
     inkscape:window-height="1028"
     inkscape:window-x="0"
     inkscape:window-y="0"
     inkscape:window-maximized="1"
     inkscape:current-layer="layer1">
    <inkscape:grid
       id="grid21"
       units="px"
       originx="0"
       originy="0"
       spacingx="1"
       spacingy="1"
       empcolor="#0099e5"
       empopacity="0.30196078"
       color="#0099e5"
       opacity="0.14901961"
       empspacing="5"
       enabled="false"
       visible="true"
       dotted="true" />
  </sodipodi:namedview>
  <defs
     id="defs1">
    <inkscape:path-effect
       effect="fillet_chamfer"
       id="path-effect24"
       is_visible="true"
       lpeversion="1"
       nodesatellites_param="F,0,0,1,0,0.30033178,0,1 @ F,0,0,1,0,0,0,1 @ F,0,0,1,0,0,0,1 @ F,0,0,1,0,0,0,1 @ F,0,0,1,0,0,0,1 @ F,0,0,1,0,0,0,1 @ F,0,0,1,0,0,0,1 @ F,0,0,1,0,0,0,1 @ F,0,0,1,0,0.41548573,0,1 @ F,0,0,1,0,0.2693936,0,1 @ F,0,0,1,0,0,0,1 @ F,0,0,1,0,0,0,1 @ F,0,0,1,0,0,0,1 @ F,0,0,1,0,0,0,1 @ F,0,0,1,0,0,0,1 @ F,0,0,1,0,0,0,1 @ F,0,0,1,0,0,0,1 @ F,0,0,1,0,0.193851,0,1"
       radius="0"
       unit="px"
       method="auto"
       mode="F"
       chamfer_steps="1"
       flexible="false"
       use_knot_distance="true"
       apply_no_radius="true"
       apply_with_radius="true"
       only_selected="false"
       hide_knots="false" />
    <inkscape:path-effect
       effect="fillet_chamfer"
       id="path-effect23"
       is_visible="true"
       lpeversion="1"
       nodesatellites_param="F,0,0,1,0,0,0,1 @ F,0,0,1,0,0,0,1 @ F,0,0,1,0,0,0,1 @ F,0,0,1,0,0,0,1 @ F,0,0,1,0,0,0,1 @ F,0,0,1,0,0,0,1 @ F,0,0,1,0,0,0,1 @ F,0,0,1,0,0,0,1 @ F,0,0,1,0,0,0,1 @ F,0,0,1,0,0,0,1 @ F,0,0,1,0,0,0,1 @ F,0,0,1,0,0,0,1 @ F,0,0,1,0,0,0,1 @ F,0,0,1,0,0,0,1 @ F,0,0,1,0,0,0,1 @ F,0,0,1,0,0,0,1 @ F,0,0,1,0,0,0,1 @ F,0,0,1,0,0,0,1"
       radius="0"
       unit="px"
       method="auto"
       mode="F"
       chamfer_steps="1"
       flexible="false"
       use_knot_distance="true"
       apply_no_radius="true"
       apply_with_radius="true"
       only_selected="false"
       hide_knots="false" />
    <inkscape:path-effect
       effect="fillet_chamfer"
       id="path-effect22"
       is_visible="true"
       lpeversion="1"
       nodesatellites_param="F,0,0,1,0,0.30007197,0,1 @ F,0,0,1,0,0,0,1 @ F,0,0,1,0,0,0,1 @ F,0,0,1,0,0,0,1 @ F,0,0,1,0,0,0,1 @ F,0,0,1,0,0,0,1 @ F,0,0,1,0,0,0,1 @ F,0,0,1,0,0,0,1 @ F,0,0,1,0,0,0,1 @ F,0,0,1,0,0,0,1 @ F,0,0,1,0,0,0,1 @ F,0,0,1,0,0,0,1 @ F,0,0,1,0,0,0,1 @ F,0,0,1,0,0,0,1 @ F,0,0,1,0,0,0,1 @ F,0,0,1,0,0,0,1 @ F,0,0,1,0,0,0,1 @ F,0,0,1,0,0.21467074,0,1"
       radius="0"
       unit="px"
       method="auto"
       mode="F"
       chamfer_steps="1"
       flexible="false"
       use_knot_distance="true"
       apply_no_radius="true"
       apply_with_radius="true"
       only_selected="false"
       hide_knots="false" />
    <inkscape:path-effect
       effect="fillet_chamfer"
       id="path-effect21"
       is_visible="true"
       lpeversion="1"
       nodesatellites_param="F,0,0,1,0,0,0,1 @ F,0,0,1,0,0,0,1 @ F,0,0,1,0,0,0,1 @ F,0,0,1,0,0,0,1 @ F,0,0,1,0,0,0,1 @ F,0,0,1,0,0,0,1 @ F,0,0,1,0,0,0,1 @ F,0,0,1,0,0,0,1 @ F,0,0,1,0,0,0,1 @ F,0,0,1,0,0,0,1 @ F,0,0,1,0,0,0,1 @ F,0,0,1,0,0,0,1 @ F,0,0,1,0,0,0,1 @ F,0,0,1,0,0,0,1 @ F,0,0,1,0,0,0,1 @ F,0,0,1,0,0,0,1 @ F,0,0,1,0,0,0,1 @ F,0,0,1,0,0,0,1"
       radius="0"
       unit="px"
       method="auto"
       mode="F"
       chamfer_steps="1"
       flexible="false"
       use_knot_distance="true"
       apply_no_radius="true"
       apply_with_radius="true"
       only_selected="false"
       hide_knots="false" />
    <inkscape:perspective
       sodipodi:type="inkscape:persp3d"
       inkscape:vp_x="11.782164 : -6.8024357 : 0"
       inkscape:vp_y="866.0254 : -500 : 0"
       inkscape:vp_z="10.574175 : -6.105003 : 0"
       inkscape:persp3d-origin="9.3211009 : 3.5168195 : 1"
       id="perspective7" />
  </defs>
  <g
     inkscape:label="Layer 1"
     inkscape:groupmode="layer"
     id="layer1">
    <path
       id="rect25"
       style="fill:#FFF7F7;fill-opacity:1;stroke:none;stroke-width:3;stroke-linecap:butt;stroke-linejoin:round;stroke-dasharray:none;stroke-opacity:1"
       d="M 4.1015625 2.5742188 C 3.2705625 2.5742187 2.6015625 3.2432188 2.6015625 4.0742188 L 2.6015625 11.810547 C 2.6015625 12.641547 3.2705625 13.310547 4.1015625 13.310547 L 6.8164062 13.310547 C 6.2594626 12.940503 6.2260182 12.60245 6.2265625 12.109375 L 6.2265625 8.3300781 C 6.2266684 7.794263 6.5125485 7.2991843 6.9765625 7.03125 L 10.25 5.1425781 C 10.71411 4.8746598 11.28589 4.8746598 11.75 5.1425781 L 13.628906 6.2265625 L 13.628906 4.0742188 C 13.628906 3.2432188 12.959906 2.5742188 12.128906 2.5742188 L 4.1015625 2.5742188 z " />
    <path
       id="rect1"
       style="baseline-shift:baseline;display:inline;overflow:visible;opacity:1;vector-effect:none;fill:#43912E;enable-background:accumulate;stop-color:#000000;stop-opacity:1"
       d="M 4 2 C 2.9006486 2 2 2.9006486 2 4 L 2 12 C 2 13.099351 2.9006486 14 4 14 L 7.9980469 14 L 6.9765625 13.410156 C 6.6971787 13.248833 6.4705054 13.113603 6.2871094 13 L 4 13 C 3.4373514 13 3 12.562649 3 12 L 3 4 C 3 3.4373514 3.4373514 3 4 3 L 6.7734375 3 L 12 3 C 12.562649 3 13 3.4373514 13 4 L 13 5.8632812 L 13.996094 6.4394531 L 14 4 C 14.001511 2.9006496 13.099351 2 12 2 L 6.7734375 2 L 4 2 z " />
    <path
       id="path21"
       style="display:inline;fill:none;stroke:#43912E;stroke-linecap:butt;stroke-linejoin:round;stroke-opacity:1;stroke-width:1;stroke-dasharray:none"
       d="M 11,10.220472 V 14 14 M 7.7268329,8.3307081 11,10.220472 14.273167,8.3307081 v 0 m -6.5463341,0 V 12.110236 L 11,14 14.273167,12.110236 V 8.3307081 L 11,6.4409443 Z"
       sodipodi:nodetypes="cccccccccccccc" />
  </g>
</svg>

<svg xmlns="http://www.w3.org/2000/svg" viewBox="0 0 16 16"><path fill="#fff7f7" d="M4.1016 2.5742c-.831 0-1.5.669-1.5 1.5v7.7363c0 .831.669 1.5 1.5 1.5h2.7148c-.557-.37-.5904-.708-.5898-1.2011V8.33a1.5001 1.5001 0 0 1 .75-1.2988L10.25 5.1425a1.5001 1.5001 0 0 1 1.5 0l1.879 1.084V4.0742c0-.831-.669-1.5-1.5-1.5H4.1015z"/><path fill="#43912e" d="M4 2c-1.0994 0-2 .9006-2 2v8c0 1.0994.9006 2 2 2h3.998l-1.0214-.5898A26.3383 26.3383 0 0 1 6.287 13H4c-.5626 0-1-.4374-1-1V4c0-.5626.4374-1 1-1h8c.5626 0 1 .4374 1 1v1.8633l.996.5762L14 4c.0015-1.0994-.9006-2-2-2H4z" overflow="visible"/><path fill="none" stroke="#43912e" stroke-linejoin="round" d="M11 10.2205V14M7.7268 8.3307 11 10.2205l3.2732-1.8898m-6.5464 0v3.7795L11 14l3.2732-1.8898V8.3307L11 6.441Z"/></svg>
